X:1
T:[ID 2-35]
T:[ID 2-35]
T:Bezeichnung standardisiert: Menuett Menuet No 6.
T:Urheber unbekannt Erstbeleg: 1767 (Datum in der schriftlichen Quelle) Datum in der hier transkribierten schriftlichen Quelle: 1792
C:Urheber unbekannt
C:Erstbeleg: 1767 (Datum in der schriftlichen Quelle)
C:Datum in der hier transkribierten schriftlichen Quelle: 1792
L:1/8
M:3/4
K:C
V:1 treble 
V:1
 C2 (cB)(cB) | c2 BA G2 | AcBAGF | E4 D2 | G,4 (3EFG | GFFEED | G,4 (3EFG | GFFE D2 | c4 d2 | %9
 (3edc (3dcB c2 | F2 E2 DB, | C6 :: c2 e2 (3efg | d2 cBAG | ABcBAG | ^F2 EF D2 | D4 (3Bcd | %17
 dccBBA | D4 (3ABc | cBBA G2 | AcBAG^F | G2 z GAB | c4 GE | A4 FD | G4 EC | B,2 z DB,G, | %26
 G,4 (3EFG | (GF)(FE)(ED) || G,4 (3DEF | FEED C2 | c4 d2 | (3edc (3dcB c2 | F2 E2 DB, | C6 :| %34

